app/assets/images/svg/open-logo.svg

<svg width="31px" height="26px" viewBox="0 0 31 26" version="1.1" 
  xmlns="http://www.w3.org/2000/svg" 
  xmlns:xlink="http://www.w3.org/1999/xlink">
  <g id="4_0" stroke="none" stroke-width="1" fill="none" fill-rule="evenodd">
    <g id="2HD-Home-Copy-13" transform="translate(-431.000000, -694.000000)">
      <g id="Group-3" transform="translate(9.000000, 120.000000)">
        <g id="Bitmap-Copy-3" transform="translate(0.000000, 310.000000)">
          <g id="full-screen" transform="translate(422.000000, 264.000000)">
            <path d="M3,0.5 C1.61928813,0.5 0.5,1.61928813 0.5,3 L0.5,17 C0.5,18.3807119 1.61928813,19.5 3,19.5 L28,19.5 C29.3807119,19.5 30.5,18.3807119 30.5,17 L30.5,3 C30.5,1.61928813 29.3807119,0.5 28,0.5 L3,0.5 Z" id="Rectangle-3" stroke="#B7B7B7"></path>
            <path d="M17.5,16.5 L17.5,3.5 L5,3.5 C4.17157288,3.5 3.5,4.17157288 3.5,5 L3.5,15 C3.5,15.8284271 4.17157288,16.5 5,16.5 L17.5,16.5 Z" id="Rectangle-3-Copy-3" stroke="#B7B7B7"></path>
            <rect id="Rectangle" fill="#B7B7B7" x="20" y="4" width="8" height="1"></rect>
            <rect id="Rectangle-Copy" fill="#B7B7B7" x="20" y="6" width="8" height="1"></rect>
            <rect id="Rectangle-Copy-2" fill="#B7B7B7" x="20" y="8" width="8" height="1"></rect>
            <rect id="Rectangle-Copy-3" fill="#B7B7B7" x="20" y="10" width="5" height="1"></rect>
            <rect id="Rectangle-3-Copy" stroke="#B7B7B7" x="13.5" y="19.5" width="4" height="4"></rect>
            <path d="M11.5,23.5 C10.9477153,23.5 10.5,23.9477153 10.5,24.5 C10.5,25.0522847 10.9477153,25.5 11.5,25.5 L19.5,25.5 C20.0522847,25.5 20.5,25.0522847 20.5,24.5 C20.5,23.9477153 20.0522847,23.5 19.5,23.5 L11.5,23.5 Z" id="Rectangle-3-Copy-2" stroke="#B7B7B7"></path>
          </g>
        </g>
      </g>
    </g>
  </g>
</svg>

<svg width="31" height="26" viewBox="0 0 31 26" xmlns="http://www.w3.org/2000/svg"><g fill="none" fill-rule="evenodd"><path d="M3 .5C1.62.5.5 1.62.5 3v14c0 1.38 1.12 2.5 2.5 2.5h25c1.38 0 2.5-1.12 2.5-2.5V3c0-1.38-1.12-2.5-2.5-2.5H3z" stroke="#B7B7B7"/><path fill="#AEAEAE" opacity=".5" d="M5 5h21v10H5z"/><path stroke="#B7B7B7" d="M13.5 19.5h4v4h-4zM11.5 23.5c-.552 0-1 .448-1 1s.448 1 1 1h8c.552 0 1-.448 1-1s-.448-1-1-1h-8z"/></g></svg>
